X:1
T:Erlkönig
T:Erlkönig
T:Op. 1 (Schubert)
T:Franz Schubert
T:S. 558, No. 4 (Liszt)
T:arr. Franz Liszt
C:Franz Schubert, arr. Franz Liszt
%%score { ( 1 3 ) | ( 2 4 5 ) }
L:1/8
Q:1/4=152
M:4/4
K:Bb
V:1 treble nm="Piano"
V:3 treble 
V:2 bass 
V:4 bass 
V:5 bass 
V:1
"^Presto agitato"!f! (3[G,G][G,G][G,G] (3[G,G][G,G][G,G] (3[G,G][G,G][G,G] (3[G,G][G,G][G,G] | %1
 (3[G,G][G,G][G,G] (3[G,G][G,G][G,G] (3[G,G][G,G][G,G] (3[G,G][G,G][G,G] | %2
 (6:4:2!/![G,G]3 !/![G,G]3 (6:4:2!/![G,G]3 !/![G,G]3 | %3
 (6:4:2!/![G,G]3 !/![G,G]3 (6:4:2!/![G,G]3 !/![G,G]3 | %4
 (6:4:2!/![G,G]3 !/![G,G]3 (6:4:2!/![G,G]3 !/![G,G]3 | %5
!<(! (6:4:2!/![A,GA]3 !/![A,GA]3 (6:4:2!/![A,GA]3 !/![A,GA]3!<)! | %6
!>(! (6:4:2!/![B,GB]3 !/![B,GB]3 (6:4:2!/![A,^FA]3 !/![A,FA]3!>)! | %7
!f! (6:4:2!/![G,G]3 !/![G,G]3 (6:4:2!/![G,G]3 !/![G,G]3 | %8
 (6:4:2!/![G,G]3 !/![G,G]3 (6:4:2!/![G,G]3 !/![G,G]3 | %9
 (6:4:2!/![G,G]3 !/![G,G]3 (6:4:2!/![G,G]3 !/![G,G]3 | %10
!>(! (6:4:2!/![G,G]3 !/![G,G]3 (6:4:2!/![G,G]3 !/![G,G]3 | %11
 (6:4:2!/![G,G]3 !/![G,G]3 (6:4:2!/![G,G]3 !/![G,G]3!>)! | %12
!pp! (6:4:2!/![A,GA]3 !/![A,GA]3 (6:4:2!/![A,GA]3 !/![A,GA]3 | %13
 (3:2:1!/![B,GB]3 (3:2:1!/![B,GB]3 (6:4:2!/![B,GB]3 !/![B,=EG]3 | %14
!<(! (3:2:1!/![A,D^F]3 (3:2:1!/![A,DF]3 (6:4:4!/![A,DF]3!<)!!p! z [A,DF][A,DF] | %15
 (3z [DG][DG] (3[DG][DG][DG] (3z [B,D][B,D] (3z [B,D][B,D] | [A,A]6 x2 | %17
 (3z [DG][DG] (3[DG][DG][DG] (3z [B,D][B,D] (3[B,D][B,D][B,D] | %18
 (3^F[A,DF][A,DF] (3:2:1!/![A,DF]3 (6:4:2!/![A,DF]3 !/![A,DF]3 | z4 z2 d2 |!<(! d6 g2!<)! | %21
!>(! g4 e2 c2!>)! | f6 A2 | [B,B]6 [B,B]2 | [Ee]6 [A,A]2 | ([Cc]2 [B,B]6) | %26
 [Ee]4!>(! [A,A]3 [A,A]!>)! | [Cc]2 [B,B]4 [B,B]2 | d6 A2 | cB B2 x2 G2 | %30
 !^!A4!f!"^molto energico" !^!^F4 | %31
 (3[G,B,DG][G,G][G,G] (3:2:1!/![G,G]3 (3:2:1!/![G,G]3 (3:2:1!/![G,G]3 | %32
 (3:2:1!/![G,G]3 (3:2:1!/![G,G]3 (3:2:1!/![G,G]3 (3:2:1!/![G,G]3 | %33
 (3:2:1!/![G,G]3 (3:2:1!/![G,G]3 (3:2:1!/![G,G]3 (3:2:1!/![G,G]3 | %34
!pp! (3:2:1!/![G,G]3 (3:2:1!/![G,G]3 (3:2:1!/![G,G]3 (3:2:1!/![G,G]3 | %35
 (3:2:1!/![G,G]3 (3:2:1!/![G,G]3 (3:2:1!/![G,G]3 (3:2:1!/![G,G]3 | %36
 (3z [G,G][G,G] (3:2:1!/![G,G]3 (3:2:1!/![G,G]3 (3:2:1!/![G,G]3 | %37
 (3z [G,G][G,G] (3:2:1!/![G,G]3 (3z [A,GA][A,GA] (3:2:1!/![A,GA]3 | %38
 (3z [B,GB][B,GB] (3:2:1!/![B,GB]3 (3z!>(! [DF_A=B][DFAB] (3:2:1!/![DFAB]3!>)! | %39
!f! (3:2:1!/![CEGc]3 (3:2:1!/![CEGc]3 (3:2:1!/![CEGc]3 (3:2:1!/![CEGc]3 | %40
!pp! (3:2:1!/![CEGc]3 (3:2:1!/![CEGc]3 (3:2:1!/![CEGc]3 (3z [CEG][CEG] | %41
 (3z [DF_A=B][DFAB] (3:2:1!/![DFAB]3 (3:2:1!/![DFAB]3 (3z [DFG][DFG] | e6 x2 | %43
 (3z!>(! [DF_A=B][DFAB] (3:2:1!/![DFAB]3!>)! (3z [DFAB][DFAB] (3z [DFG][DFG] |!mf! e4 x4 | %45
!p! (3:2:1!/![A,CEF]3 (3:2:1!/![A,CEF]3 (3:2:1!/![A,CEF]3 (3z [A,CEF][A,CEF] | %46
 (3z [G,B,_D=E][G,B,DE] (3:2:1!/![G,B,DE]3 (3:2:1!/![G,B,DE]3 (3z [G,B,DE][G,B,DE] |!mf! A2 F2 x4 | %48
 (3z [G,B,_D=E][G,B,DE] (3:2:1!/![G,B,DE]3 (3:2:1!/![G,B,DE]3 (3z [G,B,DE][G,B,DE] | %49
 (3[A,Fc] z F!>(! (3:2:1!/!F3!>)! (3:2:1!/!F3 (3:2:1!/!F3 | %50
 (3:2:1!/!F3 (3:2:1!/!F3!pp! (3:2:1!/!F3 (3:2:1!/!F3 | %51
"^tranquillo" (3:2:1!/!F3 (3:2:1!/!F3 (3:2:1!/!F3 (3:2:1!/!F3 | %52
 (3z FF (3:2:1!/!F3 (3:2:1!/!F3 (3:2:1!/!F3 | %53
 (3:2:1!/![DF]3 (3:2:1!/![DF]3 (3:2:1!/![DF]3 (3:2:1!/![DF]3 | %54
 (3:2:1!/![DF]3 (3:2:1!/![DF]3 (3:2:1!/![DF]3 (3:2:1!/![DF]3 | %55
 (3:2:1!/![G,CE]3 (3:2:1!/![G,CE]3 (3:2:1!/![G,CE]3 (3:2:1!/![G,CE]3 | %56
 (3:2:1!/![B,D]3 (3:2:1!/![B,D]3 (3:2:1!/![A,C]3 [Ff]2 | %57
!ppp! !arpeggio![Fdfd']6 !arpeggio![FBfb]2 |"^espress." !arpeggio![Fcf]6 !arpeggio![Fcfc']2 | %59
 !arpeggio![Fdfd']6 !arpeggio![FBfb]2 | !arpeggio![Fcf]6 !arpeggio![Fcfc']2 | %61
 !arpeggio![Fdfd']6 !arpeggio![FBfb]2 | !arpeggio![Afaf']4 !arpeggio![Afac']4 | %63
 !arpeggio![B=egc']2 (3=bc'd' c'2 !arpeggio![CGBe]2 | !arpeggio![FAf]6 [Ff]2 | %65
 !arpeggio![Fcfc']6 !arpeggio![F^cf^c']2 | %66
 !arpeggio![Fdfd']4 !arpeggio![FBfb]2 !arpeggio![Bfb][=B=b] | !arpeggio![Fcfc']6 !arpeggio![Fcf]2 | %68
 !arpeggio![Fdfd']6 !arpeggio![dfd'][bd'] | g'3 f' !arpeggio!f'e'!arpeggio!d'c' | b4- bc'd'c' | %71
!f! x4!8va(! x2!8va)!"_tremante" !^!d2 | [Ee]4 [Ee]2 (3:2:2x2 [Ee] | %73
 (3exd d2!8va(! x2!8va)! !^!d2 | [Ee]4 [Ee]2 (3:2:2x2 [Ee] | %75
 (3(Ddd!<(!(3d'!8va(!d'd''(3d'!8va)!d'd!<)!!p!(3dDd) | (6:4:6(DdDdDd (6:4:6DdDdDd) | %77
"_dim." (6:4:6DdDdDd (6:4:6DdDdDd | %78
!<(! (3z [Dd][Dd] (3:2:1!/![Dd]3!<)!!>(! (3:2:1!/![Dd]3 (3:2:1!/![Dd]3!>)! | %79
 (3:2:1!/![Dd]3 (3:2:1!/![=EG^c]3 (3:2:1!/![D^F=B]3 (3:2:1!/![^CF^A]3 || %80
[K:C]"_tranquillo" (3:2:1!/![D^FB]3 (3:2:1!/![DFB]3 (3:2:1!/![DFB]3 (3:2:1!/![^DFA]3 | %81
 (3:2:1!/![B,EG]3 (3:2:1!/![B,EG]3 (3:2:1!/![B,EG]3 (3:2:1!/![B,EG]3 | %82
 (3:2:1!/![B,EG]3 (3:2:1!/![B,EG]3 (3:2:1!/![CEA]3 (3:2:1!/![CEA]3 | %83
 (3:2:1!/![DG]3 (3:2:1!/![B,DG]3 (3:2:1!/![CD^F]3 (3:2:1!/![CDF]3 | %84
 (3:2:1!/![B,DG]3 (3:2:1!/![B,DG]3 (3:2:1!/![B,DG]3 (3:2:1!/![B,DG]3 | %85
 (3:2:1!/![B,=FG]3 (3:2:1!/![B,FG]3!>(! (3:2:1!/![B,FG]3 (3[DFG][DFG] [Gg]!>)! | %86
!pp! (3z .[ce].[ce] x2 (3z .[eg].[eg] x2 | (3z .[fg].[fg] x2 (3z .[eg].[eg] x2 | %88
 (3z .[de].[de] x2 (3z .[ce].[ce] x2 | (3z .[de].[de] x2 (3z .[ce].[ce] x2 | %90
 (3z .[cd].[cd] x2 (3z .[Bd].[Bd] x2 | (3z .[cd].[cd] x2 (3z .[Bd].[Bd] x2 | %92
 (3z .[df].[df] x2 (3z .[eg].[eg] x2 | (3z .[fg].[fg] x2 (3z .[eg].[eg] x2 | %94
 (3z .[df].[df] x2!<(! (3z .[eg].[eg] x2!<)! | %95
!>(! ([gbg'][ff'][dd'][Bb])!>)!!f! (6:4:6[cec'] Ee!<(!ee'!8va(!e'!<)! | %96
 (6:4:6!^!e''e'!8va)!e'ee'e (6:4:6eEeEeE | !^![Ff]4 !^![Ff]2 (3:2:2x2 [Ff] | %98
 (3!^!fxe e2!8va(! x2!8va)! e2 | !^![Ff]4 !^![Ff]2 (3:2:2x2 [Ff] | %100
 (3E!<(!ee(3e'!8va(!e'e''!<)!(3e'!8va)!e'e(3eEe | (6:4:6EeEeEe (6:4:6EeEeEe | %102
"_dim." (6:4:6EeEeEe (6:4:6z EeEeE | %103
!p! (3z!<(! [Ee][Ee] (3:2:1!/![Ee]3 (3:2:1!/![Ee]3 (3:2:1!/![Ee]3!<)! | %104
 (3:2:1!/![Ee]3 (3:2:1!/![^FA^d]3 (3:2:1!/![E^G^c]3 (3:2:1!/![^DG^B]3 | %105
 (3z!p! [^C^c][Cc] (3:2:1!/![Cc]3 (3:2:1!/![Cc]3 (3:2:1!/![Cc]3 | %106
 (3:2:1!/![^C^c]3 (3:2:1!/![Cc]3 (3:2:1!/![Cc]3 (3:2:1!/![Cc]3 | %107
!>(! (3:2:1!/![EGA^c]3 (3:2:1!/![EGAc]3 (3:2:1!/![EGAc]3 (3:2:1!/![EGAc]3!>)! | %108
 (3:2:1!/![=FAd]3 (3:2:1!/![FAd]3 (3:2:1!/![FAd]3 (3:2:1!/![FAd]3 | %109
"_cresc." (3:2:1!/![E_Bd]3 (3:2:1!/![EBd]3 (3:2:1!/![EBd]3 (3:2:1!/![EBd]3 | %110
 (3:2:1!/![FAd]3 (3:2:1!/![FAd]3 (3:2:1!/![EA^c]3 (3:2:1!/![EAc]3 | %111
!ff! (3[FAd][Dd][Dd] (3:2:1!/![Dd]3 (3:2:1!/![Dd]3 (3:2:1!/![Dd]3 | %112
 (3:2:1!/![Dd]3 (3:2:1!/![Dd]3 (3:2:1!/![Dd]3 (3:2:1!/![Dd]3 | %113
 (3:2:1!/![Dd]3 (3:2:1!/![Dd]3 (3:2:1!/![Dd]3 (3:2:1!/![Dd]3 | %114
!p! (3:2:1!/![Dd]3 (3:2:1!/![Dd]3 (3:2:1!/![Dd]3 (3:2:1!/![Dd]3 | %115
 (3:2:1!/![Dd]3 (3:2:1!/![Dd]3 (3:2:1!/![Dd]3!pp! [dd']2 | %116
 (3:2:1!/![_eg]3 (3:2:1!/![eg]3 (3:2:1!/![eg]3 (3:2:1!/![g_b]3 | %117
 (3:2:1!/![_a_c']3!<(! (3:2:1!/![ac']3!<)!!p!!>(! (3:2:1!/![ac']3 (3:2:1!/![ac']3!>)! | %118
 (3z [g_b][gb]"_cresc." (3:2:1!/![gb]3 (3:2:1!/![gb]3 (3:2:1!/![gb]3 | %119
 !^![^c^c']4 !^![cc']2 !^![cc']2 |!ff! !^![dd']4 !^![dd']3 (3:2:2x/ !^![^G^g] | %121
 !^![Aa]4 !^![Aa]3 (3:2:2x/ !^![Aa] | !^!D x x2!8va(! x2!8va)! f2 | %123
 !^![_G_g]4 !^![Gg]2 (3:2:2x2 !^![Gg] | (3_gxf f2!8va(! x2!8va)! f2 | %125
 !^![_G_g]4 !^![Gg]2 (3:2:2x2 !^![Gg] | (3!^!Fff(3f'!8va(!f'f''(3f'!8va)!f'f(3fFf | %127
!<(! !^!F4!<)!!<(! !^!^F4!<)! |!<(! !^!G4!<)!!<(! !^!_E4!<)! |!<(! !^!D4!<)!!<(! !^!D4!<)! || %130
[K:Bb]"^il più presto possible"!fff! !>![G,G][G,G] !>![G,G][G,G] !>![G,G][G,G] !>![G,G][G,G] | %131
 (6:4:6(G,GG,GG,G (6:4:6G,GG,[DG]G,G) | [G,G][G,G] [G,G][G,G] [G,G][G,G] [G,G][G,G] | %133
 (6:4:6(G,GG,GG,G (6:4:6G,GG,GG,G) | !>![G,G][G,G] !>![G,G][G,G] !>![A,GA][A,GA] !>![A,GA][A,GA] | %135
 (6:4:6(B,[GB]B,[GB]B,[GB] (6:4:6B,[GB]B,[GB]B,[GB]) | %136
 !>![B,GB][B,GB] !>![B,GB][B,GB] !>![CGAc][CGAc] !>![CGAc][CGAc] | %137
!<(! (6:4:6(D[GBd]D[GBd]D[GBd]!<)! (6:4:6D[GBd]D[GBd]D[GBd]) | !^![Dd]4 !^![Gg]3 !^![Dd] | e4 z4 | %140
!<(! [Cc][Cc][Cc][Cc] [Cc][Cc][Cc][Cc]!<)! | [Cc][Cc][Cc][Cc] [Cc][Cc][Cc][Cc] | c6 _A2 | %143
 !^!_d3 !^![B,B] !^![G,G]2 !^![B,B]2 |!ff! !^![_A,_A]2 z2 z4 | %145
!pp! !fermata![CE]2[Q:1/4=60]"^Recit." z/ _A/ A/ B/ c2 B A | %146
 G2 !fermata![G,B,=E] z z2!f![Q:1/4=80]"^Andante" !wedge![A,=CD^F] z | !wedge![G,B,DG]2 z2 z4 |] %148
V:2
!ped! z8 | %1
 (3([G,,,G,,][A,,,A,,][B,,,B,,] (3[C,,C,][D,,D,][E,,E,]) !wedge![D,,D,]2 !wedge![B,,,B,,]2 | %2
 !wedge![G,,,G,,]2 z2 z4!ped-up! | %3
!ped! (3([G,,,G,,][A,,,A,,][B,,,B,,] (3[C,,C,][D,,D,][E,,E,]) !wedge![D,,D,]2 !wedge![B,,,B,,]2 | %4
 !wedge![G,,,G,,]2 z2 z4!ped-up! |!ped! [C,,C,]6 [^C,,^C,]2!ped-up! |!ped! [D,,D,]8!ped-up! | %7
!ped! G,,2 z2 z4 | %8
 (3([G,,,G,,][A,,,A,,][B,,,B,,] (3[C,,C,][D,,D,][E,,E,]) !wedge![D,,D,]2 !wedge![B,,,B,,]2 | %9
 !wedge![G,,,G,,]2 z2 z4 | %10
 (3([G,,,G,,][A,,,A,,][B,,,B,,] (3[C,,C,][D,,D,][E,,E,]) !wedge![D,,D,]2 !wedge![B,,,B,,]2 | %11
 !wedge![G,,,G,,]2 z2 z4!ped-up! | ([C,,C,]8 | [^C,,^C,]8) | %14
!ped! (3(D,,^F,,G,, (3A,,=B,,^C, D,2)!ped-up![K:treble]"_Recitando" [A,A]2 | [B,B]4 [A,A]2 [G,G]2 | %16
[K:bass]!ped! (3(D,,^F,,G,, (3A,,=B,,^C, D,2)!ped-up![K:treble] [A,A]2 | [B,B]4 [G,G]4 | %18
[K:bass]!ped! (3(D,,!<(!^F,,G,, (3A,,=B,,^C,)!<)! D,4- | %19
[I:staff -1] (3:2:1!/![A,D^F]3[I:staff +1] (3:2:1!/![A,D^F]3 (6:4:2!/![A,DF]3 !/![A,DF]3!ped-up! | %20
!ped! (3z [=B,D][B,D] (3:2:1!/![B,D]3 (3:2:2!/![B,D]3 !/![B,D]3!ped-up! | %21
!ped! (3z [G,C][G,C] (3:2:1!/![G,C]3 (3:2:1!/![G,C]3 (3z [G,C][G,C]!ped-up! | %22
!ped! (3z [F,B,][F,B,] (3[F,B,][F,B,][F,B,]!ped-up!!ped! (3z [F,A,][F,A,] (3[F,A,][F,A,][F,A,]!ped-up! | %23
 (3(B,,,C,,D,, (3E,,F,,_G,,) !wedge!F,,2 !wedge!B,,,2 | %24
!ped! (6:4:1!/![E,_G,]6 (6:4:1!/![E,G,]6!ped-up! | %25
!<(!!ped! (3(B,,,C,,D,, (3E,,F,,_G,,)!<)! F,,2 B,,,2!ped-up! | %26
!ped! (6:4:2!/![E,_G,]3 !/![E,G,]3 (6:4:2!/![E,G,]3 !/![E,G,]3!ped-up! | %27
!ped! (3(B,,,C,,D,, (3E,,F,,_G,,) .F,,2 .B,,2!ped-up! | %28
!ped! (6:4:2!/![^F,,D,A,]3 !/![F,,D,A,]3 (6:4:2!/![F,,D,A,]3 !/![F,,D,A,]3!ped-up! | %29
!ped! (3z [D,G,B,][D,G,B,] (3:2:1!/![D,G,B,]3!ped-up!!ped! (3z [B,,E,G,][B,,E,G,] (3:2:1!/![B,,E,G,]3!ped-up! | %30
!ped! (3:2:4!/![G,,A,,E,]3 !/![G,,A,,E,]3!ped-up!!ped! !/![^F,,A,,D,]3 !/![F,,A,,D,]3!ped-up! | %31
!ped! [B,,,D,,G,,]2 z2 z4 | %32
 (6:4:6([G,,,G,,][A,,,A,,][B,,,B,,][C,,C,][D,,D,][E,,E,]) !wedge![D,,D,]2 !wedge![B,,,B,,]2 | %33
 [G,,,G,,]2 z2 z4!ped-up! |!ped! (6:4:6(G,,,A,,,B,,,C,,D,,E,,) !wedge!D,,2 !wedge!B,,,2 | %35
 !wedge!G,,,2 z2 z2"^sotto voce ma marcato" D,2!ped-up! |!ped! G,4 z2 D,2!ped-up! | %37
 G,4!ped! A,3 A,!ped-up! |!ped! B,4!ped-up!!ped! =B,3 B,!ped-up! | %39
!ped! (6:4:6(C,,E,,F,,G,,A,,=B,,) C,4!ped-up! | %40
 (6:4:6(C,,E,,F,,G,,A,,=B,,) C,2[K:treble]"^sempre marcato il canto" !arpeggio!!tenuto!c2 | %41
"_ansioso" !tenuto!d6!ped!!ped-up! !tenuto!G2 | %42
[K:bass]!ped! (6:4:6(C,,E,,F,,G,,A,,=B,,) C,2[K:treble] !arpeggio!!tenuto!c2!ped-up! | %43
 !tenuto!d4!ped! !tenuto!d2 !tenuto!G2!ped-up! | %44
[K:bass]!ped! (6:4:6(C,,E,,F,,G,,A,,=B,,) C,4!ped-up! | %45
!ped! (6:4:6F,,,A,,,_B,,,C,,D,,=E,, F,,2[K:treble] c2!ped-up! |!ped! !arpeggio!_d6 B2!ped-up! | %47
[K:bass]!ped! (6:4:6(F,,A,,B,,C,D,=E,) F,2[K:treble] !arpeggio![FAc]2!ped-up! | %48
!ped! !arpeggio!!>!_d6 !arpeggio!cB!ped-up! | %49
[K:bass]!>(!!ped! (3x x F, (3:2:1!/!F,3!>)! (3:2:1!/!F,3 (3:2:1!/!F,3 | %50
 (3:2:1!/!F,3 (3:2:1!/!F,3 (3:2:1!/!F,3 (3:2:1!/!F,3 | %51
 (3:2:1!/!F,3 (3:2:1!/!F,3 (3:2:1!/!F,3 (3:2:1!/!F,3!ped-up! | %52
 (3x F,F, (3:2:1!/!F,3 (3:2:1!/!F,3 (3:2:1!/!F,3 | %53
 (3:2:1!/!F,3 (3:2:1!/!F,3 (3:2:1!/!F,3 (3:2:1!/!F,3 | %54
 (3:2:1!/!F,3!ped! (3:2:1!/!F,3 (3:2:1!/!F,3 (3:2:1!/!F,3!ped-up! | %55
!ped! !wedge!E,,2 z2 !wedge!C,,2 z2!ped-up! | %56
 (3:2:1!/!F,3 (3:2:1!/!F,3 (3:2:1!/!F,3 (3:2:1!/![F,A,C]3 | %57
"^legg."!ped! (3z [B,D]F, (3z [B,D]F, (3z [B,D]F, (3z [B,D]F,!ped-up! | %58
!ped! (3z [A,E]F, (3z [A,E]F, (3z [A,E]F, (3z [A,E]F,!ped-up! | %59
!ped! (3x [B,D]F, (3x [B,D]F, (3x [B,D]F, (3x [B,D]F,!ped-up! | %60
!ped! (3x [A,E]F, (3x [A,E]F, (3x [A,E]F, (3x [A,E]F,!ped-up! | %61
!ped! (3x [B,D]F, (3x [B,D]F, (3x [B,D]F, (3x [B,D]F,!ped-up! | %62
!ped! (3x [CF]A, (3x [CF]A, (3x [CF]A, (3x [CF]A,!ped-up! | %63
!ped! (3x [B,=E]G, (3x [B,E]G, (3x [B,E]G, (3x [B,E]G,!ped-up! | %64
!ped! (3x [A,C]F, (3x [A,C]F, (3x [A,C]F, (3x [A,C]F,!ped-up! | %65
!ped! (3x [A,E]F, (3x [A,E]F, (3x [A,E]F, (3x [A,E]F,!ped-up! | %66
!ped! (3x [B,D]F, (3x [B,D]F, (3x [B,D]F, (3x [B,D]F,!ped-up! | %67
!ped! (3x [A,E]F, (3x [A,E]F, (3x [A,E]F, (3x [A,E]F,!ped-up! | %68
!ped! (3x [B,D]F, (3x [B,D]F, (3x [B,D]F, (3x [B,D]F,!ped-up! | %69
!ped! (3G,, [=B,D]G, (3G,, [B,D]G,!ped-up!!ped! (3C, [CE]G, (3C, [CE]G,!ped-up! | %70
!ped! (3F,, [B,D]F, (3F,, [B,D]F,!ped-up!!ped! (3F,, [A,E]F, (3F,, [A,E]F,!ped-up! | %71
 [B,,F,B,]2 (3D,DD,(3DD,D !>!!^![=B,,D,=B,]2 | !^![C,E,C]4 !^![A,,E,A,]4 | %73
!ped! E,D, (3D,DD,(3DD,D !>![B,,D,=B,]2!ped-up! | !^![C,E,C]4 !^![A,,E,A,]4 | %75
!ped! [^F,,D,^F,]2 (3DDD (3DDD!ped-up![K:treble] !tenuto![^F,A]2 | %76
 !tenuto![G,B]2 !tenuto![^F,A]2 !tenuto![G,B]2 !tenuto![^G,=B]2 | [A,c]4 [^A,^c]3 [A,c] | %78
 d2 x2 x4 |[K:bass] x4 x2!p! ^F,2 ||[K:C] B,2 B,2 z2 ^F,F, | A,2 G,G, G,4 | %82
 G,2 !wedge!G,2 !wedge!A,2 !wedge!A,2 | !wedge![G,B,]2 !wedge!G,2 !wedge!D,2 E,^F, |!<(! G,4 z4 | %85
 G,,,4!<)! A,,,2 B,,,2 | %86
"^legg; amorosamente"!ped! (3[C,,C,] G,[CE] (3[CE]G,C, (3C,G,[CE] (3[CE]G,C,!ped-up! | %87
!ped! (3C,G,[B,F] (3[B,F]G,C,!ped-up!!ped! (3C,G,[CE] (3[CE]G,C,!ped-up! | %88
!ped! (3E,B,[D^G] (3[DG]B,E,!ped-up!!ped! (3A,,E,[A,C] (3[A,C]E,A,,!ped-up! | %89
!ped! (3E,B,[D^G] (3[DG]B,E,!ped-up!!ped! (3A,,E,[A,C] (3[A,C]E,A,,!ped-up! | %90
!ped! (3D,A,[C^F] (3[CF]A,D,!ped-up!!ped! (3G,,D,[G,B,] (3[G,B,]D,G,,!ped-up! | %91
!ped! (3D,A,[C^F] (3[CF]A,D,!ped-up!!ped! (3G,,D,[G,B,] (3[G,B,]D,G,,!ped-up! | %92
!ped! (3G,,[D,F,]B, (3B,[D,F,]G,,!ped-up!!ped! (3G,,[E,G,]C (3C[E,G,]G,,!ped-up! | %93
!ped! (3G,,[D,F,]B, (3B,[D,F,]G,,!ped-up!!ped! (3G,,[E,G,]C (3C[E,G,]G,,!ped-up! | %94
!ped! (3G,,[D,F,]B, (3B,[D,F,]G,,!ped-up!!ped! (3G,,[E,G,]C (3C[E,G,]G,,!ped-up! | %95
!ped! (3G,,[D,F,]B, (3B,[D,F,]G,,!ped-up!!ped! [C,E,C] z (3(E,EE, | %96
 (6:4:6EE,EE,EE,)"^tremante" E z!ped-up! !^![^C,E,^C]2 | !^![D,F,D]4 !^![B,,F,B,]4 | %98
!ped! (!^!F,E,) (6:4:6E,EE,EE,E !>![^C,E,^C]2!ped-up! | !^![D,F,D]4 !^![B,,F,B,]4 | %100
!ped! [^G,,E,^G,]2 (3EEE (3EEE[K:treble] !tenuto![^G,B]2!ped-up! | %101
 !tenuto![A,c]2 !tenuto![^G,B]2 !tenuto![A,c]2 !tenuto![^A,^c]2 | %102
 !tenuto![B,d]4 !tenuto![^B,^d]3 !tenuto![B,d] | e2 x2 x4 | C2[K:bass] x2 x2 ^G,2 | %105
!ped! !arpeggio!!>![^C,^C]6 !>![^G,,^G,]2!ped-up! |!ped! !>![A,,A,]6 !>![A,,A,]2 | %107
 !>![A,,A,]4 !>![A,,A,]3 [A,,A,]!ped-up! |!ped! [D,D]6 [D,D]2!ped-up! | %109
!ped! !arpeggio![D,D]2 [_B,,_B,][G,,G,] [E,,E,]2 [B,,B,]2!ped-up! | %110
!ped! [A,,A,]4 !arpeggio![A,,A,]2 [A,,A,]2!ped-up! | [D,,D,]2 z2 z4 | %112
!ped!!8vb(! (6:4:6([D,,,D,,][E,,,E,,][F,,,F,,][G,,,G,,][A,,,A,,][_B,,,_B,,]) !wedge![A,,,A,,]2 !wedge![F,,,F,,]2 | %113
 [D,,,D,,]2!8vb)! z2 z4!ped-up! | %114
!ped! (6:4:6([D,,D,][E,,E,][F,,F,][G,,G,][A,,A,][_B,,_B,]) !wedge![A,,A,]2 !wedge![F,,F,]2 | %115
 [D,,D,]2 z2 z2 (3:2:1!/![D,D]3!ped-up! | %116
"^molto appassionato"!ped! (3z[K:treble]"^riten." [G,_B,_EG][G,B,EG] (3:2:1!/![G,B,EG]3 (3:2:1!/![G,B,EG]3 (3:2:1!/![G,B,E_B]3!ped-up! | %117
[K:bass]!ped! (3z[K:treble]!<(! [_A,DF_c][A,DFc] (3:2:1!/![A,DFc]3!<)! (3:2:1!/![A,DFc]3!>(! (3:2:1!/![A,DFc]3!ped-up!!>)! | %118
[K:bass]!ped! (3z[K:treble] [G,_B,_E_B][G,B,EB] (3:2:1[G,B,EB]3 (3:2:1[G,B,EB]3 (3:2:1[G,B,EB]3!ped-up! | %119
[K:bass]!ped! (3z!<(! [_B,^C=E][B,CE] (3[B,CE][B,CE][B,CE]!<)! (3z [B,CE][B,CE] (3z [B,CE][B,CE]!ped-up! | %120
!ped! (3z [=B,DF][B,DF] (3[B,DF][B,DF][B,DF] (3z [B,D][B,D] (3[B,D][B,D] x!ped-up! | %121
!ped! (3z [D,F,A,][D,F,A,] (3[D,F,A,][D,F,A,][D,F,A,]!ped-up!!ped! (3z [^C,E,A,][C,E,A,] (3[C,E,A,][C,E,A,] x!ped-up! | %122
!ped!"^precipitato" [D,,F,,A,,D,]2 (3(F,FF,(3FF,F) [D,F,D]2!ped-up! | %123
!ped! !^![_E,_G,_E]4 !^![C,G,C]4!ped-up! |!ped! (_G,F,) (6:4:6(F,FF,FF,F) x2!ped-up! | %125
!ped! !^![_E,_G,_E]4 !^![C,G,C]4!ped-up! |!ped! [A,,F,A,]2 (6:4:6F,FF,FF,F F, z!ped-up! | %127
!ped! !^!F,4!ped-up!!ped! !^!^F,3 (3:2:2x/ F,!ped-up! |!ped! !^!G,4 x2 [G,A,_E]2!ped-up! | %129
!ped! !^![D,,G,,_B,,D,]2 !^![G,_B,D]2!ped-up!!ped! !^![D,,^F,,A,,D,]2 !^![^F,A,D]2!ped-up! || %130
[K:Bb]!ped! !>![G,,,G,,][G,,,G,,] !>![G,,,G,,][G,,,G,,] !>![G,,,G,,][G,,,G,,] !>![G,,,G,,][G,,,G,,] | %131
 (6:4:6([G,,,G,,]A,,B,,C,D,E,) [D,,D,]2 [B,,,D,,B,,]2 | %132
 [G,,,G,,][G,,,G,,] [G,,,G,,][G,,,G,,] [G,,,G,,][G,,,G,,] [G,,,G,,][G,,,G,,] | %133
 (6:4:6([G,,,G,,]A,,B,,C,D,E,) [D,,D,]2 [B,,,B,,]2!ped-up! | %134
!ped! !>![G,,,G,,][G,,,G,,] !>![G,,,G,,][G,,,G,,] !>![A,,,G,,A,,][A,,,G,,A,,] !>![A,,,G,,A,,][A,,,G,,A,,]!ped-up! | %135
!ped! (6:4:6([G,,B,,]A,,B,,C,D,E,) [D,,D,]2 [B,,,B,,]2 | %136
 !>![G,,,B,,,G,,][G,,,B,,,G,,] !>![G,,,B,,,G,,][G,,,B,,,G,,]!ped-up!!ped! !>![G,,,A,,,C,,G,,][G,,,A,,,C,,G,,] !>![G,,,A,,,C,,G,,][G,,,A,,,C,,G,,]!ped-up! | %137
!ped! (6:4:6([G,,,B,,,D,,G,,]A,,B,,C,D,E,) [D,,D,]2 [B,,,B,,]2!ped-up! | %138
!ped! !>![G,,,=B,,,D,,G,,][G,,,B,,,D,,G,,]!>![G,,,B,,,D,,G,,][G,,,B,,,D,,G,,] !>![G,,,B,,,D,,G,,][G,,,B,,,D,,G,,]!>![G,,,B,,,D,,G,,][G,,,B,,,D,,G,,]!ped-up! | %139
!ped! (6:4:6([C,,E,,C,]D,,E,,F,,G,,_A,,) G,,2 E,,2 | [C,,C,]4 !^![_D,,_D,]2 !^![=D,,=D,]2 | %141
 !^![E,,E,]2 !^![=E,,=E,]2 !^![F,,F,]2 !^![G,,G,]2!ped-up! | %142
!ped! [C,E,_A,][C,E,A,][C,E,A,][C,E,A,] [C,E,A,][C,E,A,][C,E,A,][C,E,A,]!ped-up! | %143
!ped! (3[_D,_F,G,][D,F,G,][D,F,G,] (3[D,F,G,][D,F,G,][D,F,G,] (3[D,F,][D,F,][D,F,] (3[D,F,G,][D,F,G,][D,F,G,]!ped-up! | %144
!ped! (3z [C,E,_A,][C,E,A,] (3[C,E,A,][C,E,A,][C,E,A,] (3[C,E,A,][C,E,A,][C,E,A,] (3[C,E,A,][C,E,A,][C,E,A,] | %145
 [C,E,_A,]2!ped-up! z/ A,/ A,/ B,/ C2 B, A, | G,2 x ^C, D,2 x2 | !wedge![G,,,B,,,D,,G,,]2 z2 z4 |] %148
V:3
 x8 | x8 | x8 | x8 | x8 | x8 | x8 | x8 | x8 | x8 | x8 | x8 | x8 | x8 | x8 | x8 | %16
 (3:2:1!/![D^F]3 (3:2:1!/![DF]3 (3:2:1!/![DF]3 (3:2:1!/![DF]3 | x8 | [Dd]8 | x8 | %20
 (3z [=FG][FG] (3:2:1!/![FG]3 (6:4:2!/![FG]3 !/![FG]3 | %21
 (3z [EG][EG] (3:2:1!/![EG]3 (3:2:1!/![EG]3 (3z [EG][EG] | %22
 (3z [DF][DF] (3[DF][DF][DF] (3z [CEF][CEF] (3[CEF][CEF][CEF] | %23
 (6:4:2!/![DF]3 !/![DF]3 (6:4:2!/![DF]3 !/![DF]3 | %24
 (3:2:2!/![_GA]3 !/![GA]3 (3:2:1!/![GA]3 (3:2:1!/![CG]3 | %25
 (6:4:2!/![DF]3 !/![DF]3 (6:4:2!/![DF]3 !/![DF]3 | %26
 (6:4:2!/![_GA]3 !/![GA]3 (6:4:2!/![CE]3 !/![CE]3 | %27
 (6:4:2!/![DF]3 !/![DF]3 (6:4:2!/![DF]3 !/![DF]3 | %28
 (6:4:2!/![CD]3 !/![CD]3"_cresc." (6:4:2!/![CD]3 !/![CD]3 | %29
 (6:4:2!/![DG]3 !/![DG]3 (3G,[B,E][B,E] (3:2:1!/![B,E]3 | %30
 (3:2:4!/![G,A,E]3 !/![G,A,E]3 !/![^F,A,D]3 !/![F,A,D]3 | x8 | x8 | x8 | x8 | x8 | x8 | x8 | x8 | %39
 x8 | x8 | x8 | (3:2:1!/![EG]3 (3:2:1!/![EG]3 (3:2:1!/![EG]3 (3z [EG][EG] | x8 | %44
 (3[EG][CEG][CEG] (3:2:1!/![CEG]3 (3:2:1!/![CEG]3 (3:2:1!/![CE_G]3 | x8 | x8 | %47
 (3:2:1!/![A,C]3 (3:2:1!/![A,C]3 (3:2:1!/![A,C]3 (3z [A,C][A,C] | x8 | x8 | x8 | x8 | x8 | x8 | %54
 x8 | x8 | x8 | x8 | x8 | x8 | x8 | x8 | x8 | x2 !arpeggio![_B=eg]4 x2 | x8 | x8 | x8 | x8 | %68
 x6 d2 | !arpeggio![dg=b]4 [cg]2 [eg]2 | [FBd]4 x2 !arpeggio![Aef]2 | %71
 (3[Bdb]!<(! Dd(3dd'!8va(!d'(3d''d'!8va)!d'!<)!(3ddD | %72
 (3z [DE][DE][I:staff +1] (3[DE][I:staff -1][DE][DE] (3x [DE][DE][I:staff +1] (3[DE][I:staff -1][DE] x | %73
 (3EDd(3dd'!8va(!d'(3d''d'!8va)!d'(3ddD | %74
 (3x [DE][DE][I:staff +1] (3[DE][I:staff -1][DE][DE] (3x [DE][DE][I:staff +1] (3[DE][I:staff -1][DE] x | %75
 x8/3!8va(! x2!8va)! x10/3 | x8 | x8 | x8 | x8 ||[K:C] x8 | x8 | x8 | x8 | x8 | x8 | %86
 !arpeggio!.[Gg]2 [Aa][Bb] !arpeggio!.[cc']2 [cc'][^c^c'] | %87
 !arpeggio!.[dd']2 !arpeggio!.[Gdg]2 !arpeggio!.[ee']2 [dd'][cc'] | %88
 !arpeggio!.[Bb]2 !arpeggio!.[EBe]2 !arpeggio!.[cc']2 [Aa][Aa] | %89
 !arpeggio!.[Bb]2 !arpeggio!.[EBe]2 !arpeggio!.[cc']2 [Aa][Aa] | %90
 !arpeggio!.[Aa]2 [^G^g][Aa] !arpeggio!.[Bb]2 [=G=g][Gg] | %91
 !arpeggio!.[Aa]2 !arpeggio!.[DAd]2 !arpeggio!.[Bb]2 [Gg][Gg] | %92
 !arpeggio!.[Gg]2 .[Aa].[Bb] !arpeggio!.[cc']2 .[dd'].[ee'] | %93
 !arpeggio!.[ff']2 .[dd'].[Bb] !arpeggio!.[cc']2 .[Gg].[Gg] | %94
 !arpeggio!.[Gg]2 .[Aa].[Bb] !arpeggio!.[cc']2 .[dd'].[ee'] | x22/3!8va(! x2/3 | x4!8va)! x2 E2 | %97
 (3z [EF][EF][I:staff +1] (3[EF][I:staff -1][EF][EF] (3z [EF][EF][I:staff +1] (3[EF][I:staff -1][EF] x | %98
 (3(FEe(3ee'!8va(!e'(3e''e'!8va)!e'(3eeE) | %99
 (3z [EF][EF][I:staff +1] (3[EF][I:staff -1][EF][EF] (3z [EF][EF][I:staff +1] (3[EF][I:staff -1][EF] x | %100
 x8/3!8va(! x2!8va)! x10/3 | x8 | x8 | x8 | x8 | x8 | x8 | x8 | x8 | x8 | x8 | x8 | x8 | x8 | x8 | %115
 x8 | [_e_e']3 [_B_b] [Bb]2 [ee']2 | [dd']2 [dd'][_e_e'] [ff']2 [ee'][dd'] | [_e_e']6 [dd']2 | %119
 (3z!<(! [G_B][GB] (3[GB][GB][GB]!<)! (3z [GB][GB] (3z [GB][GB] | %120
 (3z [^G=B][GB] (3[GB][GB][GB] (3z [FG][FG] (3[FG][FG] x | %121
 (3z [DF][DF] (3[DF][DF][DF] (3z [^CE][CE] (3[CE][CE] x | %122
[I:staff +1] (3[F,A,]!<(![I:staff -1] Ff(3f!<)!f'!8va(!f'(3f''f'!8va)!f'(3ffF | %123
 (3z [F_G][FG][I:staff +1] (3[F_G][I:staff -1][FG][FG] (3z [FG][FG][I:staff +1] (3[FG][I:staff -1][FG] x | %124
 (3_GFf(3ff'!8va(!f'(3f''f'!8va)!f'(3ffF | %125
 (3z [F_G][FG][I:staff +1] (3[F_G][I:staff -1][FG][FG] (3z [FG][FG][I:staff +1] (3[FG][I:staff -1][FG] x | %126
 x8/3!8va(! x2!8va)! x10/3 |(6:4:6x[df]f[d'f']f[df](6:4:6x[d^f]f[d'^f']f[df] | %128
(6:4:6x[dg]g[d'g']g[dg](6:4:6x[GA_e]e[ga_e']e[GAe] | %129
(6:4:6x[G_Bd]d[g_bd']d[GBd](6:4:6x[^FAd]d[^fad']d[FAd] ||[K:Bb] x8 | x4 x2 D2 | !^!D6 !^!D2 | x8 | %134
 x8 | x8 | x8 | x8 |[xF=B][DFB][DFB][DFB] [FB][FGB][FGB][FGB] | %139
 [EGc][EGc][EGc][EGc] [EGc][EGc][EGc][EGc] | x8 | x8 | [CE][CE][CE][CE] [CE][CE][CE][CE] | %143
 (3[_D_F][DF][DF] (3[DF][DF][DF] (3[DF][DF][DF] (3[DF][DF][DF] | %144
 (3[CE]!>(![CE][CE] (3[CE][CE][CE] (3[CE][CE][CE] (3[CE][CE][CE]!>)! | x8 | x8 | x8 |] %148
V:4
 x8 | x8 | x8 | x8 | x8 | x8 | x8 | x8 | x8 | x8 | x8 | x8 | x8 | x8 | x6[K:treble] x2 | x8 | %16
[K:bass] x6[K:treble] x2 | x8 |[K:bass] x8 | D,2 x2 x4 | G,,8 | C,,6 E,,2 | F,,2 x2 F,,2 x2 | x8 | %24
 [B,,C]8 | x8 | [B,,C]8 | x8 | x8 | [G,,D,B,]2 x2 !^![E,,B,,E,]2 x2 | C,,2 z2 D,,2 z2 | %31
 G,,,2 x2 x4 | x8 | x8 | x8 | x8 | x8 | x8 | x4 G,,4 | x8 | x4 x2[K:treble] [EG] x | %41
 !arpeggio![F_A=B] x x2 x2 !arpeggio![=B,D] x |[K:bass] x4 x2[K:treble] [EG] x | %43
 !arpeggio![F_A=B] x x2 !arpeggio![FAB] x !arpeggio![=B,D] x |[K:bass] x8 | %45
 x4 x2[K:treble] !arpeggio![_EFA] x | [=EGB] x x2 x2 !arpeggio![_DEG] x | %47
[K:bass] F,,,2 x2 x4[K:treble] | [=EGB] x x2 x2 [_DEG] x | %49
[K:bass] (6:4:6(F,,,A,,,B,,,C,,D,,=E,,) F,,4- | F,,4 z2 C,2 | E,6 E,2 | F,6 C,2 | B,,8 | %54
 z2 !wedge!B,,2 !wedge!F,,2 !wedge!D,,2 | x8 | !wedge!F,,2 z2 !wedge![F,,,F,,]2 x2 | %57
 (3:2:2B,, x2 (3:2:2B,, x2 (3:2:2B,, x2 (3:2:2B,, x2 | %58
 (3:2:2B,, x2 (3:2:2B,, x2 (3:2:2B,, x2 (3:2:2B,, x2 | %59
 (3:2:2B,, x2 (3:2:2B,, x2 (3:2:2B,, x2 (3:2:2B,, x2 | %60
 (3:2:2B,, x2 (3:2:2B,, x2 (3:2:2B,, x2 (3:2:2B,, x2 | %61
 (3:2:2B,, x2 (3:2:2B,, x2 (3:2:2B,, x2 (3:2:2B,, x2 | %62
 (3:2:2C, x2 (3:2:2C, x2 (3:2:2C, x2 (3:2:2C, x2 | %63
 (3:2:2C, x2 (3:2:2C, x2 (3:2:2C, x2 (3:2:2C, x2 | %64
 (3:2:2F,, x2 (3:2:2F,, x2 (3:2:2F,, x2 (3:2:2F,, x2 | %65
 (3:2:2F,, x2 (3:2:2F,, x2 (3:2:2F,, x2 (3:2:2F,, x2 | %66
 (3:2:2B,, x2 (3:2:2B,, x2 (3:2:2B,, x2 (3:2:2B,, x2 | %67
 (3:2:2F,, x2 (3:2:2F,, x2 (3:2:2F,, x2 (3:2:2F,, x2 | %68
 (3:2:2B,, x2 (3:2:2B,, x2 (3:2:2B,, x2 (3:2:2B,, x2 | x8 | x8 | x8 | x8 | !^![^F,,^F,]4 x2 x2 | %74
 x8 | x6[K:treble] x2 | x8 | x8 | =B,8- |[K:bass] B,2 =E,2 ^F,2 ^F,,2 ||[K:C] [B,,^F,]8 | %81
 [E,,B,,E,]8- | [E,,B,,E,]2 E,2 [C,E,]2 [C,E,]2 | D,2 [D,,B,,]2 [D,,A,,]2 z2 | G,,4 D,,2 B,,,2 | %85
 x8 | x8 | x8 | x8 | x8 | x8 | x8 | x8 | x8 | x8 | x8 | x8 | x8 | [^G,,^G,]2 x2 x4 | x8 | %100
 x6[K:treble] x2 | x8 | x8 | ^C8- | x2[K:bass] !wedge!^F,2 !wedge!^G,2 ^G,,2 | ^C,,2 x2 x4 | x8 | %107
 A,,,2 x2 x4 | D,,2 x2 x4 | G,,2 x2 x4 | x4 A,,,2 x2 | x8 |!8vb(! x8 | x2!8vb)! x6 | x8 | x8 | %116
 [_E,,_E,]8[K:treble] |[K:bass] [_E,,_E,]8[K:treble] |[K:bass] [_E,,_E,]8[K:treble] | %119
[K:bass] [G,,G,]4 [G,,G,]2 [G,,G,]2 | !^![^G,,^G,]4 !^![G,,G,]3 (3:2:2x/ !^![^G,,,G,,] | %121
 [A,,,A,,]4 [A,,,A,,]3 (3:2:2x/ [A,,,A,,] | x8 | x8 | [A,,A,]2 x2 x2 !^![D,F,D]2 | x8 | x8 | %127
 [C,D,]4 [C,D,]4 | [_B,,D,]4 !^![C,,G,,A,,_E,]2 x2 | x8 ||[K:Bb] x8 | x8 | !^!D,,6 !^!D,,2 | x8 | %134
 x8 | x8 | x8 | x8 | x8 | x8 | x8 | x8 | _A,,6 A,,2 | _A,,3 A,, A,,2 A,,2 | [_A,,,_A,,]2 x2 x4 | %145
 x8 | x2 !fermata![^C,,G,,B,,^C,] C,, D,,2 !wedge![D,,^F,,A,,D,] z | x8 |] %148
V:5
 x8 | x8 | x8 | x8 | x8 | x8 | x8 | x8 | x8 | x8 | x8 | x8 | x8 | x8 | x6[K:treble] x2 | x8 | %16
[K:bass] x6[K:treble] x2 | x8 |[K:bass] x8 | x8 | x8 | x8 | x8 | x8 | x8 | x8 | x8 | x8 | x8 | x8 | %30
 x8 | x8 | x8 | x8 | x8 | x8 | x8 | x8 | x8 | x8 | x6[K:treble] x2 | x8 |[K:bass] x6[K:treble] x2 | %43
 x8 |[K:bass] x8 | x6[K:treble] x2 | x8 |[K:bass] x6[K:treble] x2 | x8 |[K:bass] x8 | x8 | x8 | %52
 x8 | E,3 D, D,4 | x8 | x8 | x8 | x8 | x8 | x8 | x8 | x8 | x8 | x8 | x8 | x8 | x8 | x8 | x8 | x8 | %70
 x8 | x8 | x8 | x8 | x8 | x6[K:treble] x2 | x8 | x8 | x8 |[K:bass] x8 ||[K:C] x8 | x8 | x8 | x8 | %84
 x8 | x8 | x8 | x8 | x8 | x8 | x8 | x8 | x8 | x8 | x8 | x8 | x8 | x8 | x8 | x8 | x6[K:treble] x2 | %101
 x8 | x8 | x8 | x2[K:bass] x6 | x8 | x8 | x8 | x8 | x8 | x8 | x8 |!8vb(! x8 | x2!8vb)! x6 | x8 | %115
 x8 | x2/3[K:treble] x22/3 |[K:bass] x2/3[K:treble] x22/3 |[K:bass] x2/3[K:treble] x22/3 | %119
[K:bass] x8 | x8 | x8 | x8 | x8 | x8 | x8 | x8 | x8 | x8 | x8 ||[K:Bb] x8 | x8 | x8 | x8 | x8 | %135
 x8 | x8 | x8 | x8 | x8 | x8 | x8 | x8 | x8 | x8 | x8 | x8 | x8 |] %148

